dist/svgs/unicons/line/dice-five.svg

<svg xmlns="http://www.w3.org/2000/svg" viewBox="0 0 24 24"><path d="M17 2H7a5 5 0 00-5 5v10a5 5 0 005 5h10a5 5 0 005-5V7a5 5 0 00-5-5zm3 15a3 3 0 01-3 3H7a3 3 0 01-3-3V7a3 3 0 013-3h10a3 3 0 013 3zM8 15a1 1 0 101 1 1 1 0 00-1-1zm4-4a1 1 0 101 1 1 1 0 00-1-1zM8 7a1 1 0 101 1 1 1 0 00-1-1zm8 8a1 1 0 101 1 1 1 0 00-1-1zm0-8a1 1 0 101 1 1 1 0 00-1-1z"/></svg>

<svg xmlns="http://www.w3.org/2000/svg" viewBox="0 0 24 24"><path d="M17,2H7A5,5,0,0,0,2,7V17a5,5,0,0,0,5,5H17a5,5,0,0,0,5-5V7A5,5,0,0,0,17,2Zm3,15a3,3,0,0,1-3,3H7a3,3,0,0,1-3-3V7A3,3,0,0,1,7,4H17a3,3,0,0,1,3,3ZM8,15a1,1,0,1,0,1,1A1,1,0,0,0,8,15Zm4-4a1,1,0,1,0,1,1A1,1,0,0,0,12,11ZM8,7A1,1,0,1,0,9,8,1,1,0,0,0,8,7Zm8,8a1,1,0,1,0,1,1A1,1,0,0,0,16,15Zm0-8a1,1,0,1,0,1,1A1,1,0,0,0,16,7Z"/></svg>
